X: 666
T: Etmedin Bir Lahza İhyâ
C: Dellalzâde İsmail Efendi
O: Turkey
F: http://compmusic.upf.edu/node/140
N: sehnaz--sarki--devrihindi--etmedin_bir_lahza--dellalzade_haci_ismail_efendi
N: makam= sehnaz
N: form= sarki
N: usul= devrihindi = 7/4
M: 7/4
L: 1/16
K: C _7/8B ^1/4f ^c ^g
Q: 1/4=96
%%MIDI tuningsystem comma53
d'4 =c'4 =b4 c'd'c'b c'2d'2 c'3b a4  | \
w:  ARANAĞME  | 
=c'4 =b4 a4 bc'ba b2c'2 b3a g2e2  | 
w:   | 
e'd'd'=c' {e'}d'c'c'=b {d'}c'bba {c'}baag {b}aggf agfe d4  | 
w:   | 
e2f2 g2=b2 a2g2 g2=fg f2e2 e4 z4  | \
w:   | 
A2.d2 d2.a2 a4 a=ga=b g^3/4fga =fefg e4  | 
w:   | 
d2=g2 ^3/4f2a2 g4 gfga =fefg edef d4  | \
w:   | 
c2d2 e2=f2 d2a2 =g2f2 e2d2 a^gfe dcB2  | 
w:   | 
c2{e}d2 c2B2 B2A2 A2c4BA A8  | d'4 =c'4 =b4 c'd'c'b c'2d'2 c'3b a4  | 
w:   |  ARANAĞME  | 
=c'4 =b4 a4 bc'ba b2c'2 b3a g2e2  | \
w:   | 
e'd'd'=c' {e'}d'c'c'=b {d'}c'bba {c'}baag {b}aggf agfe d4  | 
w:   | 
e2f2 g2=b2 a2g2 g2=fg f2e2 e4 z4  | \
w:   | 
A2.d2 d2.a2 a4 a=ga=b g^3/4fga =fefg e4  | 
w:   | 
d2=g2 ^3/4f2a2 g4 gfga =fefg edef d4  | \
w:   | 
c2d2 e2=f2 d2a2 =g2f2 e2d2 a^gfe dcB2  | 
w:   | 
c2{e}d2 c2B2 B2A2 A2c4BA A8  | a8 =b4 {b}a3g f2e2 baag a4  | 
w:   |  Et me *  din  *  *  *  bir   | 
g2a2 =b2=c'2 b2a2 g2{a}gf gf2e {f}e4 z4  | \
w:  lah *  *  *  za  *  ih *  *  *  *  *  *  *  yâ   | 
e8 f4 {=b}a3g f2e2 baag a4  | 
w:  hâ tır_ *  ı  *  *  *  vî  | 
g2a2 =b2=c'2 b2a2 (3a2g2b2 a4 .a2.=g2 .^3/4f2.e2  | \
w:  râ *  *  *  nı *  mı  *  *  *  SAZ  | 
d4 e4 e2=g2 ^3/4f2e2 e2d2 {d}c3=B A4  | 
w:  yâr   | 
g2a2 =b3/2=c'/ba a3/2b/ag g3/2a/gf gffe e8  | \
w:  öm *  *  *  *  *  rüm  *  *  *  a *  *  *  *  *  *  *  man    | 
d4 a4 a4 _b3a =g2=f2 g2a2 b2d'2  | 
w:  Öm *  rü mün  *  *  *  va  | 
=c'2_b2 a2=g2 g2f2 =f2e2 g2fe edcd e4  | \
w:  rı  *  *  *  sa *  na  *  *  *  *  kur  | 
c2d2 e2^3/4f2 =g4 g2=f4e2 agfe dcBA  | 
w:  ban  *  *  *  e der *  *  ken   | 
c2d2 e2=f2 e2d2 (3d2c2e2 d4 z4 a4  | \
w:  câ *  *  *  nı *  mı  *  *  *  vay   | 
(3a2=b2=g2 (3g2a2^3/4f2 (3f2g2e2 (3e2=f2d2 a4 agfe dcBA  | 
w:  yâr   | 
z2cd e3/2f/ed c3/2d/cB B3/2c/BA c2BA A4 z4  | \
w:  öm *  *  *  *  *  rüm  *  *  *  a *  *  *  *  *  *  man    | 
d4 e4 e4 e3^3/4f =g2^1/4fe e6d2  | 
w:  Meş *  al  et *  *  *  *  miş  | 
=c2d2 d2{e}dc c2c_2/4B B2AB c2d2 c_3/4BBA A4  | \
w:  ken  *  *  *  *  *  ri *  *  kâ *  *  *  *  bın  | 
e8 f4 {=b}a3g f2e2 baag a4  | 
w:  da  dil_ *  i  *  *  *  sû  | 
g2a2 =b2=c'2 b2a2 (3a2g2b2 a4 .a2.=g2 .f2.e2  | \
w:  zâ *  *  *  nı *  mı  *  *  *  SAZ  | 
d4 e4 e2=g2 ^3/4f2e2 e2d2 {d}c3=B A4  | 
w:  yâr   | 
g2a2 =b3/2=c'/ba a3/2b/ag g3/2a/gf gffe e8  | \
w:  öm *  *  *  *  *  rüm  *  *  *  a *  *  *  *  *  *  *  man    | 
d4 a4 a4 _b3a =g2=f2 g2a2 b2d'2  | 
w:  Öm *  rü mün  *  *  *  va  | 
=c'2_b2 a2=g2 g2f2 =f2e2 g2fe edcd e4  | \
w:  rı  *  *  *  sa *  na  *  *  *  *  kur  | 
c2d2 e2^3/4f2 =g4 g2=f4e2 agfe dcBA  | 
w:  ban  *  *  *  e der *  *  ken   | 
c2d2 e2=f2 e2d2 (3d2c2e2 d4 z4 a4  | \
w:  câ *  *  *  nı *  mı  *  *  *  vay   | 
(3a2=b2=g2 (3g2a2^3/4f2 (3f2g2e2 (3e2=f2d2 a4 agfe dcBA  | 
w:  yâr   | 
z2cd e3/2f/ed c3/2d/cB B3/2c/BA c2BA A4 z4  | |


